remix/Finance/shopping-bag-3-line.svg

<svg viewBox="0 0 24 24" fill="currentColor" xmlns="http://www.w3.org/2000/svg"><path d="M6.50488 2H17.5049C17.8196 2 18.116 2.14819 18.3049 2.4L21.0049 6V21C21.0049 21.5523 20.5572 22 20.0049 22H4.00488C3.4526 22 3.00488 21.5523 3.00488 21V6L5.70488 2.4C5.89374 2.14819 6.19013 2 6.50488 2ZM19.0049 8H5.00488V20H19.0049V8ZM18.5049 6L17.0049 4H7.00488L5.50488 6H18.5049ZM9.00488 10V12C9.00488 13.6569 10.348 15 12.0049 15C13.6617 15 15.0049 13.6569 15.0049 12V10H17.0049V12C17.0049 14.7614 14.7663 17 12.0049 17C9.24346 17 7.00488 14.7614 7.00488 12V10H9.00488Z"/></svg>

<svg viewBox="0 0 24 24" xmlns="http://www.w3.org/2000/svg"><path fill="none" d="M0 0h24v24H0Z"/><path d="M6.5 2h11v0c.31 0 .61.14.8.4L21 6v15 0c0 .55-.45 1-1 1H4v0c-.56 0-1-.45-1-1V6l2.7-3.6v0c.18-.26.48-.4.8-.4ZM19 8H5v12h14V8Zm-.5-2L17 4H7L5.5 6h13ZM9 10v2 0c0 1.65 1.34 3 3 3 1.65 0 3-1.35 3-3v-2h2v2 0c0 2.76-2.24 5-5 5 -2.77 0-5-2.24-5-5v-2h2Z"/></svg>
